X:87
T:Red Apple Rag
C:Traditional
M:2/4
L:1/8
Q:1/8=230
K:G
D/C/|:B,/C/D/F/ G/F/G/A/|B/d/B/A/ G/B/A/G/|E/F/G/A/ c/B/c|e/d/e/c/ c/B/c/A/|
d/^c/d/e/ f/e/d/e/|f/a/f/e/ e/d/e/f/|g/b/g/e/ d/B/A/F/|1 G3D/C/:|2 G3B/c/|
|:de/f/ g/f/g|b/a/b/g/ g/a/g/e/|c/d/e/f/ g/f/g/e/|a/g/e/c/ c/B/c/A/|
d/^c/d/e/ f/e/d/e/|f/a/f/e/ de/f/|g/b/g/e/ d/B/A/F/:|G4|
